Catalina-light/actions/16/format-text-symbol.svg

<svg xmlns="http://www.w3.org/2000/svg" width="16" height="16" viewBox="0 0 16 16">
 <defs>
  <style id="current-color-scheme" type="text/css">
   .ColorScheme-Text { color:#5c616c; } .ColorScheme-Highlight { color:#5294e2; }
  </style>
 </defs>
 <path style="fill:currentColor" class="ColorScheme-Text" d="M 5.375 0.98046875 C 5.375 0.98046875 1 0.98049375 1 5.3554688 C 1.873975 3.6075937 2.3822 4.00195 5 4 C 4.989539 13.57 2.752175 12.960531 2.75 14.488281 C 4.06325 15.496356 6.11495 14.937631 6.265625 12.957031 L 7 3.9726562 L 10 3.9609375 L 9.75 13.011719 C 9.75 15.636719 13.25005 15.636719 14.125 13.011719 L 15 10.386719 C 14.124975 12.136694 11.499372 14.760969 11.576172 12.089844 L 12 3.9746094 L 15 3.9648438 L 15 0.98046875 L 5.375 0.98046875 z"/>
</svg>

<svg width="16" height="16" viewBox="0 0 16 16" xmlns="http://www.w3.org/2000/svg">
<defs>
<style id="current-color-scheme" type="text/css">.ColorScheme-Text { color:#5c616c; } .ColorScheme-Highlight { color:#5294e2; }</style>
</defs>
<path class="ColorScheme-Text" d="m5.375 0.98047s-4.375 2.5e-5 -4.375 4.375c0.87398-1.7479 1.3822-1.3535 4-1.3555-0.010461 9.57-2.2478 8.9605-2.25 10.488 1.3132 1.0081 3.365 0.44935 3.5156-1.5312l0.73438-8.9844 3-0.011719-0.25 9.0508c0 2.625 3.5 2.625 4.375 0l0.875-2.625c-0.87502 1.75-3.5006 4.3742-3.4238 1.7031l0.42383-8.1152 3-0.0097656v-2.9844h-9.625z" fill="#363636"/>
</svg>
